source/static/icons/mr.svg

<svg xmlns="http://www.w3.org/2000/svg" width="18" height="18" viewBox="0 0 18 18">
  <defs>
    <style>
      .cls-1 {
        fill-rule: evenodd;
      }
    </style>
  </defs>
  <path id="Фигура_3" data-name="Фигура 3" class="cls-1" d="M8.8,6.5h0A2.419,2.419,0,0,0,6.4,9.1a2.263,2.263,0,0,0,2.3,2.5,2.456,2.456,0,0,0,2.5-2.4V8.9A2.309,2.309,0,0,0,8.8,6.5ZM16.2,0H1.8A1.793,1.793,0,0,0,0,1.8V16.2A1.793,1.793,0,0,0,1.8,18H16.2A1.793,1.793,0,0,0,18,16.2V1.8A1.793,1.793,0,0,0,16.2,0ZM13.8,13.4a1.566,1.566,0,0,1-2.5-1.2V11.8A3.338,3.338,0,0,1,8.8,13a3.905,3.905,0,0,1,0-7.8,3.733,3.733,0,0,1,2.6,1.2h0a0.56,0.56,0,0,1,.5-0.6H12a0.619,0.619,0,0,1,.6.6v5.4c0,0.4.3,0.5,0.6,0.3,0.8-.9,1.8-4.6-0.5-6.7A5.34,5.34,0,0,0,6,4.9a5.17,5.17,0,0,0-1.7,6.2,4.965,4.965,0,0,0,6.2,2.7c1-.4,1.4,1,0.4,1.4a6.511,6.511,0,0,1-7.7-3A6.6,6.6,0,0,1,5.5,3.5a6.674,6.674,0,0,1,8.4,1.1C16.2,7,16,11.6,13.8,13.4Z"/>
</svg>

<svg version="1.1" id="Layer_1" xmlns="http://www.w3.org/2000/svg" xmlns:xlink="http://www.w3.org/1999/xlink" x="0px" y="0px"
	 viewBox="0 0 18 18" enable-background="new 0 0 18 18" xml:space="preserve">

	<path fill-rule="evenodd" clip-rule="evenodd" d="M8.8,6.5L8.8,6.5c-1.5,0-2.4,1.2-2.4,2.6c0,1.6,1,2.5,2.3,2.5
		c1.5,0,2.4-1.1,2.5-2.4V8.9C11.2,7.4,10.1,6.5,8.8,6.5z M16.2,0H1.8C0.8,0,0,0.8,0,1.8v14.4c0,1,0.8,1.8,1.8,1.8h14.4
		c1,0,1.8-0.8,1.8-1.8V1.8C18,0.8,17.2,0,16.2,0z M13.8,13.4c-1,0.8-2.5,0-2.5-1.2l0-0.4C10.7,12.5,9.8,13,8.8,13
		c-2,0-3.7-1.8-3.7-3.9c0-2.1,1.7-3.9,3.7-3.9c1,0,1.9,0.5,2.6,1.2v0c0-0.3,0.2-0.6,0.5-0.6H12c0.5,0,0.6,0.5,0.6,0.6l0,5.4
		c0,0.4,0.3,0.5,0.6,0.3c0.8-0.9,1.8-4.6-0.5-6.7c-2.2-2-5.1-1.7-6.7-0.5C4.3,6,3.3,8.6,4.3,11.1c1.1,2.7,4.3,3.5,6.2,2.7
		c1-0.4,1.4,1,0.4,1.4c-1.5,0.7-5.7,0.6-7.7-3C1.9,9.9,2,5.6,5.5,3.5c2.7-1.7,6.3-1.2,8.4,1.1C16.2,7,16,11.6,13.8,13.4z"/>
</svg>
